src/next/cmd/sc_fontworkshapetype.fontwork-open-circle-pour.svg

<svg height="16" viewBox="0 0 16 16" width="16" xmlns="http://www.w3.org/2000/svg" xmlns:xlink="http://www.w3.org/1999/xlink"><linearGradient id="a"><stop offset="0" stop-color="#7c9fcf"/><stop offset=".5" stop-color="#7c9ece"/><stop offset="1" stop-color="#7b9dcf"/></linearGradient><linearGradient id="b"><stop offset="0" stop-color="#fff"/><stop offset=".53340602" stop-color="#fff"/><stop offset=".9375" stop-color="#f1f1f1"/><stop offset=".96875" stop-color="#eaeaea"/><stop offset="1" stop-color="#dfdfdf"/></linearGradient><linearGradient id="c" gradientUnits="userSpaceOnUse" x1="0" x2="128" xlink:href="#a" y1="64" y2="64"/><linearGradient id="d" gradientUnits="userSpaceOnUse" x1="64" x2="64" xlink:href="#b" y1="128" y2="0"/><linearGradient id="e" gradientUnits="userSpaceOnUse" x1="64" x2="64" xlink:href="#b" y1="99.798988" y2="56"/><linearGradient id="f" gradientUnits="userSpaceOnUse" x1="64" x2="64" xlink:href="#a" y1="99.798988" y2="56"/><g transform="scale(.125)"><path d="m64 0a64 64 0 0 0 -64 64h32a32 32 0 0 1 32-32 32 32 0 0 1 32 32h32a64 64 0 0 0 -64-64z" fill="url(#c)"/><path d="m64 8a56 56 0 0 0 -55.3691406 48h16.1796876a40 40 0 0 1 39.189453-32 40 40 0 0 1 39.14844 32h16.20703a56 56 0 0 0 -55.35547-48z" fill="url(#d)"/><path d="m32 63.978516a8.0220996 8.0220996 0 0 0 -8.021484 8.021484v16a8.0220996 8.0220996 0 0 0 8.021484 8.021484h64a8.0220996 8.0220996 0 0 0 8.02148-8.021484v-16a8.0220996 8.0220996 0 0 0 -8.02148-8.021484z" fill="url(#f)"/><path d="m32 72h64v16h-64z" fill="url(#e)"/></g></svg>

<?xml version="1.0" encoding="UTF-8" standalone="no"?>
<svg
   xmlns:dc="http://purl.org/dc/elements/1.1/"
   xmlns:cc="http://creativecommons.org/ns#"
   xmlns:rdf="http://www.w3.org/1999/02/22-rdf-syntax-ns#"
   xmlns:svg="http://www.w3.org/2000/svg"
   xmlns="http://www.w3.org/2000/svg"
   xmlns:xlink="http://www.w3.org/1999/xlink"
   xmlns:sodipodi="http://sodipodi.sourceforge.net/DTD/sodipodi-0.dtd"
   xmlns:inkscape="http://www.inkscape.org/namespaces/inkscape"
   height="16"
   viewBox="0 0 16 16"
   width="16"
   version="1.1"
   id="svg32"
   sodipodi:docname="sc_fontworkshapetype.fontwork-open-circle-pour.svg"
   inkscape:version="0.92.3 (2405546, 2018-03-11)"
   inkscape:export-filename="/home/rizmut/Dokumen/Rizmut/Github/libreoffice-style-karasa-jaga/src/next/cmd/sc_fontworkshapetype.fontwork-open-circle-pour.png"
   inkscape:export-xdpi="96"
   inkscape:export-ydpi="96">
  <metadata
     id="metadata38">
    <rdf:RDF>
      <cc:Work
         rdf:about="">
        <dc:format>image/svg+xml</dc:format>
        <dc:type
           rdf:resource="http://purl.org/dc/dcmitype/StillImage" />
        <dc:title></dc:title>
      </cc:Work>
    </rdf:RDF>
  </metadata>
  <defs
     id="defs36" />
  <sodipodi:namedview
     pagecolor="#ffffff"
     bordercolor="#666666"
     borderopacity="1"
     objecttolerance="10"
     gridtolerance="10"
     guidetolerance="10"
     inkscape:pageopacity="0"
     inkscape:pageshadow="2"
     inkscape:window-width="1366"
     inkscape:window-height="714"
     id="namedview34"
     showgrid="false"
     inkscape:zoom="5.2149125"
     inkscape:cx="33.252873"
     inkscape:cy="14.207978"
     inkscape:window-x="0"
     inkscape:window-y="28"
     inkscape:window-maximized="1"
     inkscape:current-layer="svg32" />
  <linearGradient
     id="a">
    <stop
       offset="0"
       stop-color="#7c9fcf"
       id="stop2" />
    <stop
       offset=".5"
       stop-color="#7c9ece"
       id="stop4" />
    <stop
       offset="1"
       stop-color="#7b9dcf"
       id="stop6" />
  </linearGradient>
  <linearGradient
     id="b">
    <stop
       offset="0"
       stop-color="#fff"
       id="stop9" />
    <stop
       offset=".53340602"
       stop-color="#fff"
       id="stop11" />
    <stop
       offset=".9375"
       stop-color="#f1f1f1"
       id="stop13" />
    <stop
       offset=".96875"
       stop-color="#eaeaea"
       id="stop15" />
    <stop
       offset="1"
       stop-color="#dfdfdf"
       id="stop17" />
  </linearGradient>
  <linearGradient
     id="c"
     gradientUnits="userSpaceOnUse"
     x1="0"
     x2="128"
     xlink:href="#a"
     y1="64"
     y2="64" />
  <linearGradient
     id="d"
     gradientUnits="userSpaceOnUse"
     x1="64"
     x2="64"
     xlink:href="#b"
     y1="128"
     y2="0" />
  <linearGradient
     id="e"
     gradientUnits="userSpaceOnUse"
     x1="64"
     x2="64"
     xlink:href="#b"
     y1="99.798988"
     y2="56" />
  <linearGradient
     id="f"
     gradientUnits="userSpaceOnUse"
     x1="64"
     x2="64"
     xlink:href="#a"
     y1="99.798988"
     y2="56" />
  <g
     id="g849"
     transform="scale(0.125)">
    <path
       id="path24"
       d="M 64,0 A 64,64 0 0 0 0,64 H 32 A 32,32 0 0 1 64,32 32,32 0 0 1 96,64 h 32 A 64,64 0 0 0 64,0 Z"
       style="fill:url(#c)"
       inkscape:connector-curvature="0" />
    <path
       id="path26"
       d="M 64,8 A 56,56 0 0 0 8.6308594,56 H 24.810547 A 40,40 0 0 1 64,24 40,40 0 0 1 103.14844,56 h 16.20703 A 56,56 0 0 0 64,8 Z"
       style="fill:url(#d)"
       inkscape:connector-curvature="0" />
    <path
       id="path28"
       d="M 32,63.978516 A 8.0220996,8.0220996 0 0 0 23.978516,72 V 88 A 8.0220996,8.0220996 0 0 0 32,96.021484 H 96 A 8.0220996,8.0220996 0 0 0 104.02148,88 V 72 A 8.0220996,8.0220996 0 0 0 96,63.978516 Z"
       style="fill:url(#f)"
       inkscape:connector-curvature="0" />
    <path
       id="path30"
       d="M 32,72 H 96 V 88 H 32 Z"
       style="fill:url(#e)"
       inkscape:connector-curvature="0" />
  </g>
</svg>
